X:24
T:Morrison's
M:6/8
L:1/8
K:Em
"Em"~E3 BEB|EBE "D"AFD|"Em"~E3 BE^c|"C"d^cB "D"AFD|
"Em"~E3 BEB|EBE "D"AFE|"G"~G3 FGA|"D sl"BAG FED:|
"Em"Bee fee|aee "D"fed|"Em"Bee fee|"C"gag "D"fed|
"Em"Bee fee|aee "D"fef|"G"gfe d2 A|"D"BAG FED|
"Em"Bee fee|aee "D"fed|"Em"Bee fee|"C"gag "D"fed|
"G"~g3 gfe|"D"def "G"g2 d|"D"ed^c d2 A|"C"BAG "D"FED||
